X: 6000
T: Candyfloss, The
R: polka
M: 2/4
K: Dmajor
F/G/|AF Dd|cA GF/G/|AF DE/F/|E/F/E/C/ A,F/G/|
AF D/F/A/d/|cA GF/G/|Ad ce|d2 d:|
d/e/|fd Ae/f/|ge cA|fd AG/F/|Ee cA|
fd Ae/f/|ge cA|fd/B/ Ac|d2 d>e|
fd/B/ Ae/f/|ge/c/ Ad/e/|fd/B/ AG/F/|Ee/d/ c/B/A/G/|
fd/B/ Ae/f/|ge/c/ Ad/e/|fd/B/ Ac|d2 d||

